X: 33624
T: Ralph's 2-3-5
R: reel
M: 4/4
K: Eminor
EF|:GEEE BGEE|B,EEE BGEF|GDDD GBdB|GBdg edB2|
GEEE BGEE|B,EEE BG fg|dBAG BB fg|1 dBAF E2 EF:|2 dBAF E3B||
M:6/4
|:efgf eb Bb afed|efgf ebbf d2ga|efgf eb Bb afed|
BBAB GEFG E3 A|efgf eb Bb afed|efgf ebbf d2ga|
cdec dadd afed|1 BBAB GEFG E3 A:|2 BBAB GEFG E3 F||
M:4/4
K: E dorian
|:EFFE d2cA|d2cA BGEE|B,EEE EFFE|d2 c2 BccB|
gafg eEEE|EFFE d2cA|d2cA BGEE|B,EEE EFFE|
d2 c2 BccB|1 gafg eEEE:|2 gafg ez3||

